X:1
T: Macallan
C:
R:Strathspey
Q: 128
K:A
M:4/4
L:1/16
|:D2|CE3 A3B cBAG A3c|d3e f3e dcBA GB3|CE3 A3B cBAG A3a|fgaf e2a2 c2A2 A2D2|
CE3 A3B cBAG A3c|d3e f3e dcBA GB3|CE3 A3B cBAG A3a|fgaf e2a2 c2A2 A2g2|
a3A cde2 f3a e3a|d3a c3a B3A GB3|a3A cde2 f3a e3a|d3f B3e c3A A3g|
a3A cde2 f3a e3a|d3a c3a B3A GB3|((3A2B2c2) ((3d2c2B2) ((3b2d2e2) a3g|fga2 e3a c2A2 A2:|
